X: 1
T: Rattlin', Roarin' Willie
M: 9/8
L: 1/8
R: slip jig
K: Dmix
|: B | 
AFD DED F>AB | cBc EcE G2 B | 
AFD DF/E/D F>A^c | d^cd FDF A2 B/c/ |
dcB AFD F>AB | cBc EcE G2 E | 
D2 d F2 D F>Ad | FD/E/F EcE D2 :|
|: B | 
AFD dFD A>FD | EcE GcE G2 B | 
AFD dFD F>A^c | d^cd FD/E/F A2 B/c/ |
dcB AFD F>AB | cBc EcE G2 E | 
D2 d F2 D F>Ad | FDF EcE D2 :|
